!!!OTL: DU HERZGELIEBTER MEIN, KOMM DU ZU MIR HEUT ABEND
!!!ARE: Europa, Mitteleuropa, Deutschland, Herzogtum Berg
!!!SCT: Z0087
!!!YEM: Copyright 1995, estate of Helmut Schaffrath.
**kern
*ICvox
*Ivox
*M6/8
*k[f#]
*e:
{8g#
=1
4e
8gn
8a
8gn
8f#
=2
4gn
4.r}
{8fn
=3
4dn
8fn
8gn
8fn
8e
=4
4fn
4.r}
{8gn
=5
4e
8gn
8a
8gn
8f#
=6
8gn
8e
4.r}
{8fn
=7
4dn
8fn
8gn
8fn
8e
=8
8fn
8dn
4.r}
{8a
=9
8g#
8a
8b
8ccn
8b
8a
=10
4e
8r}
{4.a
=11
8g#
8a
8b
8ccn
8b
8a
=12
4.e
4r}
==
!!!AGN: Sagen - Lied, Romanze, Tod
!!!ONB: ESAC (Essen Associative Code) Database: ZUCCAL
!!!AMT: compound duple
!!!AIN: vox
!!!EED: Helmut Schaffrath
!!!EEV: 1.0
*-
